X:1
T:Gairney Bridge, 88.88.88
T:Gairney Bridge, 88.88.88
T:Ernest R. Kroeger, 1901
T:Public Domain Courtesy of the Cyber Hymnal™
C:Ernest R. Kroeger, 1901
Z:Public Domain
Z:Courtesy of the Cyber Hymnal™
%%score ( 1 2 ) ( 3 4 )
L:1/8
Q:1/4=90
M:3/4
K:Eb
V:1 treble 
V:2 treble 
V:3 bass 
V:4 bass 
V:1
 [EG][DF] E | [EA]3 [EA] [DG][DF] | [EB]3 [EB] [Ac][Ad] | [Ge]2 [EB]2 [DA][EG] | %4
 [DF]2 z [EG] [DF]E | [EA]3 [EA] [DG][DF] | [EB]3 [EB] [EB][=Ec] | [Fd][Fd] [Ge]2 [E=A]2 | %8
 [DB]2 z [FB] [Fc][Fd] | [Ee]3 [EG] [FA][GB] | [Ec]3 [EF] [EF][EF] | [EG][EG] [DA]2 [B,D]2 | %12
 [B,E]3 |] %13
V:2
 x2 E | x6 | x6 | x6 | x5 E | x6 | x6 | x6 | x6 | x6 | x6 | x6 | x3 |] %13
V:3
 [E,B,][A,B,] [G,B,] | [F,C]3 [F,C] B,[A,B,] | [G,B,]3 [G,B,] [F,B,][F,B,] | %3
 [E,B,]2 [G,B,]2 [F,B,][E,B,] | [B,,B,]2 z [E,B,] [A,B,][G,B,] | [F,C]3 [F,C] B,[A,B,] | %6
 [G,B,]3 [G,B,] [_G,B,][G,B,] | [F,B,][F,B,] [F,B,]2 [F,C]2 | B,2 z [B,D] [=A,C][_A,_C] | %9
 [G,B,]3 [E,E] [E,D][E,_D] | [A,C]3 [A,_C] [A,C][A,C] | B,[B,,B,] [B,,F,]2 [B,,A,]2 | [E,G,]3 |] %13
V:4
 x3 | x4 B, x | x6 | x6 | x6 | x4 B, x | x6 | x6 | B,2 x4 | x6 | x6 | B, x5 | x3 |] %13

